svgs/sharp-solid/split.svg

<svg xmlns="http://www.w3.org/2000/svg" viewBox="0 0 512 512"><!--! Font Awesome Pro 6.6.0 by @fontawesome - https://fontawesome.com License - https://fontawesome.com/license (Commercial License) Copyright 2024 Fonticons, Inc. --><path d="M416 32l96 96-96 96-32 0 0-64-50.7 0-96 96 96 96 50.7 0 0-64 32 0 96 96-96 96-32 0 0-64-64 0-13.3 0-9.4-9.4L178.7 288 32 288 0 288l0-64 32 0 146.7 0L297.4 105.4l9.4-9.4L320 96l64 0 0-64 32 0z"/></svg>

<svg xmlns="http://www.w3.org/2000/svg" viewBox="0 0 512 512"><!--! Font Awesome Pro 6.4.0 by @fontawesome - https://fontawesome.com License - https://fontawesome.com/license (Commercial License) Copyright 2023 Fonticons, Inc. --><path d="M416 32l96 96-96 96H384V160H333.3l-96 96 96 96H384V288h32l96 96-96 96H384V416H320 306.7l-9.4-9.4L178.7 288H32 0V224H32 178.7L297.4 105.4l9.4-9.4H320h64V32h32z"/></svg>
